packages/core/src/svgs/ogv.svg

<svg width="24" height="24" viewBox="0 0 24 24" fill="none" xmlns="http://www.w3.org/2000/svg">
<g clip-path="url(#clip0_31_15330)">
<path d="M0 0H24V24H0V0Z" fill="#030C17"/>
<path d="M18.3772 18.4287C20.0638 16.7235 21.0061 14.4196 20.9981 12.0213C20.9901 9.62293 20.0323 7.32542 18.3344 5.63155C17.4946 4.79441 16.4979 4.13129 15.4013 3.68021C14.3047 3.22914 13.1298 2.999 11.9441 3.00298C10.7583 3.00696 9.58503 3.24499 8.49148 3.70342C7.39794 4.16184 6.40565 4.83164 5.57153 5.67441L18.3772 18.4287Z" fill="#1C242E"/>
<path d="M17.5715 8.97424L16.3457 7.80852L15.7157 8.45138L15.7072 8.44281L15.1929 8.95709L12.0472 12.15L10.05 10.1271C9.63861 10.5557 9.36432 11.1214 9.30432 11.7471L12.0472 14.5242L15.1457 11.3828C15.2383 11.8237 15.2369 12.2791 15.1416 12.7193C15.0463 13.1596 14.8593 13.5749 14.5928 13.938C14.3263 14.3012 13.9862 14.6041 13.5947 14.827C13.2033 15.0499 12.7693 15.1878 12.321 15.2317C11.8727 15.2756 11.4201 15.2246 10.9929 15.0819C10.5656 14.9392 10.1732 14.708 9.84127 14.4035C9.50933 14.099 9.2453 13.7279 9.06638 13.3145C8.88747 12.9011 8.79769 12.4547 8.80289 12.0042C8.80547 11.41 8.97317 10.8282 9.28728 10.3237C9.60138 9.81924 10.0495 9.41203 10.5817 9.14751C11.1138 8.883 11.709 8.77161 12.3008 8.82577C12.8925 8.87993 13.4576 9.09752 13.9329 9.45424L15.3043 8.06138C14.5533 7.43624 13.64 7.03757 12.671 6.91192C11.702 6.78626 10.7173 6.93879 9.83166 7.35171C8.94606 7.76463 8.19617 8.4209 7.6695 9.24394C7.14282 10.067 6.86109 11.0228 6.85718 12C6.85832 12.7694 7.03209 13.5287 7.36567 14.222C7.69924 14.9153 8.18414 15.525 8.78462 16.006C9.38509 16.4871 10.0859 16.8273 10.8353 17.0015C11.5847 17.1758 12.3636 17.1797 13.1147 17.0129C13.8659 16.8461 14.57 16.513 15.1752 16.0379C15.7805 15.5629 16.2714 14.9581 16.6119 14.2682C16.9524 13.5782 17.1337 12.8206 17.1425 12.0513C17.1514 11.2819 16.9875 10.5204 16.6629 9.82281L17.5715 8.96995V8.97424Z" fill="white"/>
<path d="M9.30859 11.747L12.0472 14.5241V12.1498L10.0543 10.127C9.62942 10.5669 9.3665 11.1381 9.30859 11.747Z" fill="url(#paint0_linear_31_15330)"/>
</g>
<defs>
<linearGradient id="paint0_linear_31_15330" x1="7.93716" y1="12.1155" x2="10.8043" y2="13.1141" gradientUnits="userSpaceOnUse">
<stop stop-color="#1C313F"/>
<stop offset="1" stop-color="white"/>
</linearGradient>
<clipPath id="clip0_31_15330">
<rect width="24" height="24" fill="white"/>
</clipPath>
</defs>
</svg>

<svg xmlns="http://www.w3.org/2000/svg" width="24" height="24" fill="none" viewBox="0 0 24 24"><g clip-path="url(#a)"><path fill="#030C17" d="M0 0h24v24H0z"/><path fill="#1C242E" d="M18.377 18.429a9.07 9.07 0 0 0-.043-12.797 9.01 9.01 0 0 0-12.762.042z"/><path fill="#fff" d="M17.572 8.974 16.346 7.81l-.63.642-.009-.008-.514.514-3.146 3.193-1.997-2.023a2.7 2.7 0 0 0-.746 1.62l2.743 2.777 3.099-3.141a3.204 3.204 0 0 1-4.153 3.699 3.21 3.21 0 0 1-2.19-3.078 3.206 3.206 0 0 1 5.13-2.55l1.371-1.393A5.152 5.152 0 0 0 6.857 12a5.142 5.142 0 1 0 9.806-2.177l.909-.853z"/><path fill="url(#b)" d="m9.309 11.747 2.738 2.777V12.15l-1.993-2.023a2.7 2.7 0 0 0-.745 1.62"/></g><defs><linearGradient id="b" x1="7.937" x2="10.804" y1="12.116" y2="13.114" gradientUnits="userSpaceOnUse"><stop stop-color="#1C313F"/><stop offset="1" stop-color="#fff"/></linearGradient><clipPath id="a"><path fill="#fff" d="M0 0h24v24H0z"/></clipPath></defs></svg>
